X: 41268
T: Tuesday Morning
R: jig
M: 6/8
K: Gminor
|:DGG DGG|BAG AF=E|DFF CFF|ABA AF=E|
DGG DGG|BAG FDC|b,,3 C3|DGG G3:|
|:gdB gdB|gag bag|fcA fcA|fgf agf|
gdB gdB|gab a2f|fdB cBc|dBG G3:|

